svg/Pictogram/pictograms-aem-0095r-keep_safe_distance_from_hot_surface.svg

<?xml version="1.0" encoding="ISO-8859-1" standalone="yes"?>
<svg height="275.667" width="275.667">
  <metadata>
    <rdf:RDF xmlns:cc="http://web.resource.org/cc/" xmlns:dc="http://purl.org/dc/elements/1.1/" xmlns:rdf="http://www.w3.org/1999/02/22-rdf-syntax-ns#">
      <cc:Work rdf:about="">
        <dc:title></dc:title>
        <dc:description></dc:description>
        <dc:subject>
          <rdf:Bag>
            <rdf:li></rdf:li>
          </rdf:Bag>
        </dc:subject>
        <dc:publisher>
          <cc:Agent rdf:about="http://www.unece.org/trans/danger/publi/ghs/pictograms.html">
            <dc:title>Source: UNECE GHS of Classification and Labeling of Chemicals, Source: AEM Pictorial Database, Source: AEM Pictorial Database, Source: AEM Pictorial Database, Source: AEM Pictorial Database</dc:title>
          </cc:Agent>
        </dc:publisher>
        <dc:creator>
          <cc:Agent>
            <dc:title></dc:title>
          </cc:Agent>
        </dc:creator>
        <dc:rights>
          <cc:Agent>
            <dc:title></dc:title>
          </cc:Agent>
        </dc:rights>
        <dc:date></dc:date>
        <dc:format>image/svg+xml</dc:format>
        <dc:type rdf:resource="http://purl.org/dc/dcmitype/StillImage"/>
        <cc:license rdf:resource="http://en.wikipedia.org/wiki/Public_domain"/>
        <dc:language>en</dc:language>
      </cc:Work>
    </rdf:RDF>
  </metadata>
  <defs><marker id="ArrowEnd" markerHeight="3" markerUnits="strokeWidth" markerWidth="4" orient="auto" refX="0" refY="5" viewBox="0 0 10 10"><path d="M 0 0 L 10 5 L 0 10 z"/></marker><marker id="ArrowStart" markerHeight="3" markerUnits="strokeWidth" markerWidth="4" orient="auto" refX="10" refY="5" viewBox="0 0 10 10"><path d="M 10 0 L 0 5 L 10 10 z"/></marker> </defs>
  <g id="g2958" transform="matrix(1.3532768,0,0,1.3532781,-53.207834,-52.192858)">
    <path d="M 225.077 59.0384L 202.054 68.7184C 197.358 70.4804 193.253 70.1874 188.561 69.0114C 183.866 67.8394 128.14 47.6014 128.14 47.6014C 128.14 47.6014 124.327 54.9334 130.776 57.8664C 137.229 60.8004 140.163 61.9724 140.163 61.9724L 116.702 63.1444C 116.702 63.1444 116.995 71.9444 123.444 71.9444C 129.897 71.9444 151.604 71.6514 151.604 71.6514L 113.768 80.4524C 115.233 86.3194 118.46 88.9564 123.741 88.0774C 129.018 87.1944 153.362 81.6244 155.417 81.0384C 157.468 80.4524 159.229 80.4524 160.698 81.6244C 162.163 82.7964 175.655 90.1324 175.655 90.1324C 175.655 90.1324 161.573 88.0774 158.347 87.7844C 155.124 87.4914 147.792 90.1324 148.085 97.1674C 148.085 97.1674 181.225 102.745 185.624 103.331C 190.026 103.917 197.948 103.917 202.64 100.984C 207.335 98.0504 208.8 96.8744 211.147 95.7024C 213.491 94.5304 224.929 88.3704 224.929 88.3704L 225.077 59.0384" style="stroke:none; fill-rule:evenodd; fill:#000000"/>
    <path d="M 57.761 203.554C 58.7102 204.55 58.3313 206.668 58.0266 207.308C 58.0266 207.308 56.1985 211.437 56.1985 211.437L 57.7376 212.105L 59.5384 208.027C 60.097 206.859 60.5032 204.007 58.972 202.398L 57.761 203.554" style="stroke:none; fill-rule:evenodd; fill:#000000"/>
    <path d="M 62.929 202.91L 63.0462 203.171C 63.722 204.703 63.5384 206.214 63.2688 207.496C 63.1126 208.23 62.2337 210.617 61.9095 211.476L 63.4759 212.07C 63.6009 211.742 64.6985 208.836 64.9095 207.843C 65.2142 206.39 65.4524 204.468 64.5774 202.492C 64.5774 202.492 64.4524 202.218 64.4524 202.218C 64.0227 201.269 63.6516 200.449 63.8665 199.078L 62.2142 198.816C 61.9173 200.679 62.4563 201.867 62.929 202.91" style="stroke:none; fill-rule:evenodd; fill:#000000"/>
    <path d="M 69.1087 203.16C 69.7884 204.765 69.5892 206.32 69.3431 207.496C 69.1868 208.23 68.304 210.617 67.9798 211.476L 69.5462 212.07C 69.6712 211.742 70.7688 208.836 70.9798 207.843C 71.2571 206.535 71.5227 204.562 70.6516 202.503C 69.8665 200.652 69.2766 198.461 70.2688 195L 68.6556 194.539C 67.5227 198.515 68.2493 201.125 69.1087 203.16" style="stroke:none; fill-rule:evenodd; fill:#000000"/>
    <path d="M 73.5345 198.988C 73.6282 200.769 74.1282 202.152 74.554 203.156C 75.2337 204.761 75.0345 206.32 74.7845 207.496C 74.6282 208.23 73.7493 210.617 73.4251 211.476L 74.9915 212.07C 75.1126 211.742 76.2142 208.836 76.4251 207.843C 76.6985 206.535 76.9681 204.562 76.097 202.503C 75.7259 201.625 75.2884 200.421 75.2102 198.902L 73.5345 198.988" style="stroke:none; fill-rule:evenodd; fill:#000000"/>
    <path d="M 79.9563 189.625C 80.1985 190.574 80.2962 193.058 79.7298 194.269C 78.054 197.867 79.0423 201.066 79.929 203.16C 80.6087 204.765 80.4095 206.32 80.1595 207.496C 80.0032 208.23 79.1243 210.617 78.8001 211.476L 80.3626 212.07C 80.4876 211.742 81.5852 208.836 81.8001 207.843C 82.0735 206.539 82.3431 204.566 81.472 202.503C 80.6438 200.554 79.8704 197.933 81.2493 194.976C 82.0227 193.316 81.8782 190.386 81.5813 189.214L 79.9602 189.625" style="stroke:none; fill-rule:evenodd; fill:#000000"/>
    <path d="M 85.5852 188.074C 86.0188 189.043 86.3079 192.66 85.929 193.566C 84.1595 197.812 84.511 200.3 85.722 203.156C 86.4016 204.765 86.2024 206.32 85.9524 207.496C 85.7962 208.23 84.9173 210.617 84.5892 211.476L 86.1556 212.07C 86.2806 211.742 87.3782 208.836 87.5892 207.843C 87.8665 206.539 88.136 204.566 87.2649 202.503C 86.2024 199.996 85.9212 197.933 87.4759 194.211C 88.0696 192.781 87.6751 188.648 87.1165 187.394L 85.5852 188.074" style="stroke:none; fill-rule:evenodd; fill:#000000"/>
    <path d="M 91.1907 191.636C 91.2181 192.707 91.1243 193.336 91.0266 193.566C 89.2532 197.82 89.6048 200.304 90.8157 203.16C 91.4954 204.765 91.2962 206.32 91.0501 207.496C 90.8938 208.23 90.011 210.617 89.6868 211.476L 91.2532 212.07C 91.3782 211.742 92.4759 208.836 92.6868 207.843C 92.9642 206.535 93.2298 204.562 92.3587 202.503C 91.3001 200 91.0188 197.937 92.5735 194.211C 92.7962 193.675 92.8938 192.793 92.8665 191.597L 91.1907 191.636" style="stroke:none; fill-rule:evenodd; fill:#000000"/>
    <path d="M 97.1907 191.785C 97.2181 192.851 97.1243 193.476 97.0266 193.711C 95.2142 198.062 95.5071 200.386 96.679 203.156C 97.3587 204.761 97.1595 206.316 96.9095 207.496C 96.7532 208.23 95.8782 210.617 95.554 211.476L 97.1165 212.066C 97.2415 211.738 98.3352 208.836 98.5462 207.843C 98.8235 206.535 99.0931 204.558 98.2181 202.503C 97.2024 200.101 96.9798 198.179 98.5696 194.355C 98.7962 193.82 98.8938 192.937 98.8665 191.742L 97.1907 191.785" style="stroke:none; fill-rule:evenodd; fill:#000000"/>
    <path d="M 101.882 202.82C 102.402 204.527 102.492 207 102.249 208.152C 102.093 208.886 101.39 210.8 101.136 211.472L 102.698 212.07C 102.737 211.968 103.675 209.515 103.89 208.5C 104.179 207.125 104.108 204.375 103.487 202.332C 102.811 200.125 102.651 198.714 103.464 196.195L 101.87 195.679C 100.929 198.593 101.136 200.367 101.882 202.82" style="stroke:none; fill-rule:evenodd; fill:#000000"/>
    <path d="M 106.78 202.179L 106.979 202.82C 107.499 204.531 107.589 207.003 107.343 208.152C 107.19 208.886 106.487 210.8 106.229 211.472L 107.792 212.07C 107.835 211.968 108.768 209.515 108.983 208.5C 109.272 207.128 109.206 204.378 108.581 202.332C 108.581 202.328 108.378 201.675 108.378 201.675C 107.835 199.949 107.632 199.304 108.35 197.074L 106.761 196.558C 105.87 199.296 106.194 200.32 106.78 202.179" style="stroke:none; fill-rule:evenodd; fill:#000000"/>
    <path d="M 113.663 191.781C 113.686 192.855 113.593 193.484 113.495 193.714C 111.686 198.062 111.979 200.386 113.151 203.156C 113.827 204.765 113.632 206.32 113.382 207.496C 113.225 208.23 112.347 210.617 112.022 211.476L 113.589 212.07C 113.71 211.742 114.808 208.836 115.018 207.843C 115.296 206.539 115.561 204.566 114.694 202.507C 113.679 200.101 113.452 198.179 115.042 194.355C 115.265 193.824 115.362 192.945 115.339 191.746L 113.663 191.781" style="stroke:none; fill-rule:evenodd; fill:#000000"/>
    <path d="M 117.225 198.988C 117.319 200.765 117.819 202.148 118.245 203.156C 118.925 204.769 118.725 206.32 118.475 207.492C 118.319 208.23 117.44 210.617 117.116 211.476L 118.682 212.07C 118.804 211.742 119.901 208.836 120.112 207.843C 120.39 206.539 120.659 204.566 119.788 202.503C 119.417 201.625 118.979 200.418 118.897 198.902L 117.225 198.988" style="stroke:none; fill-rule:evenodd; fill:#000000"/>
    <path d="M 124.6 190.273C 124.694 191.941 124.507 193.285 124.05 194.269C 122.374 197.867 123.358 201.066 124.249 203.16C 124.925 204.765 124.725 206.32 124.479 207.496C 124.323 208.23 123.444 210.617 123.116 211.476L 124.682 212.07C 124.808 211.742 125.905 208.836 126.116 207.843C 126.393 206.535 126.659 204.562 125.792 202.503C 124.964 200.554 124.19 197.937 125.565 194.976C 126.143 193.742 126.382 192.125 126.272 190.179L 124.6 190.273" style="stroke:none; fill-rule:evenodd; fill:#000000"/>
    <path d="M 129.386 202.816C 129.901 204.523 129.991 206.996 129.749 208.152C 129.593 208.886 128.89 210.8 128.632 211.472L 130.198 212.07C 130.237 211.968 131.171 209.515 131.386 208.5C 131.679 207.121 131.608 204.371 130.987 202.328C 130.311 200.117 130.151 198.707 130.968 196.195L 129.374 195.679C 128.429 198.582 128.636 200.363 129.386 202.816" style="stroke:none; fill-rule:evenodd; fill:#000000"/>
    <path d="M 134.968 202.816C 135.487 204.527 135.581 207 135.335 208.152C 135.179 208.886 134.475 210.8 134.222 211.472L 135.784 212.07C 135.823 211.968 136.761 209.515 136.975 208.5C 137.265 207.125 137.194 204.375 136.569 202.328C 135.897 200.121 135.733 198.711 136.55 196.195L 134.956 195.679C 134.015 198.586 134.222 200.363 134.968 202.816" style="stroke:none; fill-rule:evenodd; fill:#000000"/>
    <path d="M 140.722 203.156C 141.401 204.761 141.202 206.316 140.952 207.496C 140.796 208.23 139.917 210.617 139.593 211.476L 141.159 212.066C 141.284 211.738 142.378 208.836 142.589 207.843C 142.866 206.535 143.136 204.558 142.265 202.503C 141.808 201.425 141.308 200 141.511 198.546L 139.85 198.316C 139.593 200.175 140.179 201.878 140.722 203.156" style="stroke:none; fill-rule:evenodd; fill:#000000"/>
    <path d="M 145.034 201.769C 145.202 202.543 145.448 203.312 145.815 204.183C 146.495 205.785 146.296 207.343 146.046 208.519C 145.893 209.238 145.225 210.871 144.983 211.441L 146.522 212.101C 146.62 211.878 147.472 209.878 147.686 208.867C 147.964 207.558 148.229 205.582 147.358 203.531C 147.034 202.761 146.815 202.086 146.671 201.418L 145.034 201.769" style="stroke:none; fill-rule:evenodd; fill:#000000"/>
    <path d="M 152.12 208.519C 151.968 209.238 151.3 210.871 151.054 211.441L 152.593 212.101C 152.69 211.878 153.542 209.878 153.757 208.867C 153.757 208.867 154.018 206.89 154.018 206.89L 152.347 206.832L 152.12 208.519" style="stroke:none; fill-rule:evenodd; fill:#000000"/>
    <path d="M 52.3626 225.011L 156.78 225.011L 156.78 213.285L 52.3626 213.285L 52.3626 225.011z" style="stroke:none; fill-rule:evenodd; fill:#000000"/>
    <path d="M 168.452 119.405L 146.925 120.409L 137.784 129.55L 153.311 128.487L 140.116 141.667L 146.093 147.71L 159.315 134.487L 158.253 150.019L 167.448 140.823L 168.452 119.405" style="stroke:none; fill-rule:evenodd; fill:#000000"/>
    <path d="M 117.874 169.987L 118.87 148.464L 128.011 139.327L 126.948 154.851L 140.116 141.667L 146.093 147.71L 132.952 160.851L 148.475 159.792L 139.284 168.984L 117.874 169.987" style="stroke:none; fill-rule:evenodd; fill:#000000"/>
    <path d="M 29.6204 237.046L 2.62042 237.046" style="stroke:#000000; stroke-width:0.5; fill:none"/>
    <path d="M 38.6204 246.046L 38.6204 273.046" style="stroke:#000000; stroke-width:0.5; fill:none"/>
    <path d="M 29.6204 38.6204L 2.62042 38.6204" style="stroke:#000000; stroke-width:0.5; fill:none"/>
    <path d="M 38.6204 29.6204L 38.6204 2.62042" style="stroke:#000000; stroke-width:0.5; fill:none"/>
    <path d="M 246.046 38.6204L 273.046 38.6204" style="stroke:#000000; stroke-width:0.5; fill:none"/>
    <path d="M 237.046 29.6204L 237.046 2.62042" style="stroke:#000000; stroke-width:0.5; fill:none"/>
    <path d="M 246.046 237.046L 273.046 237.046" style="stroke:#000000; stroke-width:0.5; fill:none"/>
    <path d="M 237.046 246.046L 237.046 273.046" style="stroke:#000000; stroke-width:0.5; fill:none"/>
  </g>
</svg>

<svg viewBox="0 0 275.67 275.67"><g transform="matrix(1.35328 0 0 1.35328-53.21-52.19)" fill-rule="evenodd"><path d="m225.08 59.04l-23.02 9.68c-4.696 1.762-8.801 1.469-13.493.293-4.695-1.172-60.42-21.41-60.42-21.41 0 0-3.813 7.332 2.636 10.265 6.453 2.934 9.387 4.106 9.387 4.106l-23.461 1.172c0 0 .293 8.8 6.742 8.8 6.453 0 28.16-.293 28.16-.293l-37.836 8.801c1.465 5.867 4.692 8.504 9.973 7.625 5.277-.883 29.621-6.453 31.676-7.04 2.051-.586 3.812-.586 5.281.586 1.465 1.172 14.957 8.508 14.957 8.508 0 0-14.08-2.055-17.308-2.348-3.223-.293-10.555 2.348-10.262 9.383 0 0 33.14 5.578 37.539 6.164 4.402.586 12.324.586 17.02-2.347 4.695-2.934 6.16-4.11 8.507-5.282 2.344-1.172 13.782-7.332 13.782-7.332l.148-29.332"/><path d="m57.761 203.55c.949.996.57 3.114.266 3.754 0 0-1.828 4.129-1.828 4.129l1.539.668 1.801-4.078c.559-1.168.965-4.02-.566-5.629l-1.211 1.156"/><path d="m62.929 202.91l.117.261c.676 1.532.492 3.043.223 4.325-.156.734-1.035 3.121-1.359 3.98l1.566.594c.125-.328 1.223-3.234 1.434-4.227.305-1.453.543-3.375-.332-5.351 0 0-.125-.274-.125-.274-.43-.949-.801-1.769-.586-3.14l-1.652-.262c-.297 1.863.242 3.051.715 4.094"/><path d="m69.11 203.16c.68 1.605.481 3.16.234 4.336-.156.734-1.039 3.121-1.363 3.98l1.566.594c.125-.328 1.223-3.234 1.434-4.227.277-1.308.543-3.281-.328-5.34-.785-1.851-1.375-4.04-.383-7.503l-1.613-.461c-1.133 3.976-.406 6.586.453 8.621"/><path d="m73.53 198.99c.094 1.781.594 3.164 1.02 4.168.68 1.605.48 3.164.23 4.34-.156.734-1.035 3.121-1.359 3.98l1.566.594c.121-.328 1.223-3.234 1.434-4.227.273-1.308.543-3.281-.328-5.34-.371-.878-.809-2.082-.887-3.601l-1.676.086"/><path d="m79.956 189.62c.242.949.34 3.433-.227 4.644-1.676 3.598-.688 6.797.199 8.891.68 1.605.48 3.16.23 4.336-.156.734-1.035 3.121-1.359 3.98l1.563.594c.125-.328 1.223-3.234 1.438-4.227.273-1.304.543-3.277-.328-5.34-.828-1.949-1.602-4.57-.223-7.527.773-1.66.629-4.59.332-5.762l-1.621.411"/><path d="m85.59 188.07c.434.969.723 4.586.344 5.492-1.77 4.246-1.418 6.734-.207 9.59.68 1.609.48 3.164.23 4.34-.156.734-1.035 3.121-1.363 3.98l1.566.594c.125-.328 1.223-3.234 1.434-4.227.277-1.304.547-3.277-.324-5.34-1.063-2.507-1.344-4.57.211-8.292.594-1.43.199-5.563-.359-6.817l-1.531.68"/><path d="m91.19 191.64c.027 1.071-.066 1.7-.164 1.93-1.773 4.254-1.422 6.738-.211 9.594.68 1.605.48 3.16.234 4.336-.156.734-1.039 3.121-1.363 3.98l1.566.594c.125-.328 1.223-3.234 1.434-4.227.277-1.308.543-3.281-.328-5.34-1.059-2.503-1.34-4.566.215-8.292.223-.536.32-1.418.293-2.614l-1.676.039"/><path d="m97.19 191.78c.027 1.066-.066 1.691-.164 1.926-1.812 4.351-1.52 6.675-.348 9.445.68 1.605.48 3.16.23 4.34-.156.734-1.031 3.121-1.355 3.98l1.563.59c.125-.328 1.219-3.23 1.43-4.223.277-1.308.547-3.285-.328-5.34-1.016-2.402-1.238-4.324.351-8.148.227-.535.324-1.418.297-2.613l-1.676.043"/><path d="m101.88 202.82c.52 1.707.61 4.18.367 5.332-.156.734-.859 2.648-1.113 3.32l1.562.598c.039-.102.977-2.555 1.192-3.57.289-1.375.218-4.125-.403-6.168-.676-2.207-.836-3.618-.023-6.137l-1.594-.516c-.941 2.914-.734 4.688.012 7.141"/><path d="m106.78 202.18l.199.641c.52 1.711.61 4.183.364 5.332-.153.734-.856 2.648-1.114 3.32l1.563.598c.043-.102.976-2.555 1.191-3.57.289-1.372.223-4.122-.402-6.168 0-.004-.203-.657-.203-.657-.543-1.726-.746-2.371-.028-4.601l-1.589-.516c-.891 2.738-.567 3.762.019 5.621"/><path d="m113.66 191.78c.023 1.074-.07 1.703-.168 1.933-1.809 4.348-1.516 6.672-.344 9.442.676 1.609.481 3.164.231 4.34-.157.734-1.035 3.121-1.36 3.98l1.567.594c.121-.328 1.219-3.234 1.429-4.227.278-1.304.543-3.277-.324-5.336-1.015-2.406-1.242-4.328.348-8.152.223-.531.32-1.41.297-2.609l-1.676.035"/><path d="m117.22 198.99c.094 1.777.594 3.16 1.02 4.168.68 1.613.48 3.164.23 4.336-.156.738-1.035 3.125-1.359 3.984l1.566.594c.122-.328 1.219-3.234 1.43-4.227.278-1.304.547-3.277-.324-5.34-.371-.878-.809-2.085-.891-3.601l-1.672.086"/><path d="m124.6 190.27c.094 1.668-.093 3.01-.55 3.996-1.676 3.598-.692 6.797.199 8.891.676 1.605.476 3.16.23 4.336-.156.734-1.035 3.121-1.363 3.98l1.566.594c.126-.328 1.223-3.234 1.434-4.227.277-1.308.543-3.281-.324-5.34-.828-1.949-1.602-4.566-.227-7.527.578-1.234.817-2.851.707-4.797l-1.672.094"/><path d="m129.39 202.82c.515 1.707.605 4.18.363 5.336-.156.734-.859 2.648-1.117 3.32l1.566.598c.039-.102.973-2.555 1.188-3.57.293-1.379.222-4.129-.399-6.172-.676-2.211-.836-3.621-.019-6.133l-1.594-.516c-.945 2.903-.738 4.684.012 7.137"/><path d="m134.97 202.82c.519 1.711.613 4.184.367 5.336-.156.734-.86 2.648-1.113 3.32l1.562.598c.039-.102.977-2.555 1.191-3.57.29-1.375.219-4.125-.406-6.172-.672-2.207-.836-3.617-.019-6.133l-1.594-.516c-.941 2.907-.734 4.684.012 7.137"/><path d="m140.72 203.16c.679 1.605.48 3.16.23 4.34-.156.734-1.035 3.121-1.359 3.98l1.566.59c.125-.328 1.219-3.23 1.43-4.223.277-1.308.547-3.285-.324-5.34-.457-1.078-.957-2.503-.754-3.957l-1.661-.23c-.257 1.859.329 3.562.872 4.84"/><path d="m145.03 201.77c.168.774.414 1.543.781 2.414.68 1.602.481 3.16.231 4.336-.153.719-.821 2.352-1.063 2.922l1.539.66c.098-.223.95-2.223 1.164-3.234.278-1.309.543-3.285-.328-5.336-.324-.77-.543-1.445-.687-2.113l-1.637.351"/><path d="m152.12 208.52c-.152.719-.82 2.352-1.066 2.922l1.539.66c.097-.223.949-2.223 1.164-3.234 0 0 .261-1.977.261-1.977l-1.671-.058-.227 1.687"/><path d="m52.36 225.01h104.42v-11.726h-104.42v11.726"/><path d="m168.45 119.41l-21.527 1-9.141 9.141 15.527-1.063-13.195 13.18 5.977 6.04 13.222-13.223-1.062 15.532 9.195-9.196 1-21.418"/><path d="m117.87 169.99l.996-21.523 9.141-9.137-1.063 15.524 13.168-13.184 5.977 6.04-13.14 13.14 15.523-1.059-9.191 9.192-21.41 1"/></g></svg>
